X:5
T:Kurfürsten-Polka GC 5- chords
M:2/4
L:1/16
K:Gmaj%%MIDI gchordon
D2 |: "G"DBAB cBAG | "D7"G2F2 FAde | e2F2 FAce | "G"edBG D2>D2 | DBAB cBAG | "D"FAdf A2A2 | [L:1/8]
"A7"B>A ^c>A |1 "D"dd dD :|2 "D"dd dB |: "D7"cD [L:1/16] DFAc | "G"B2GB e2d2 | "D7"cDFA dcAF | "G"G2BG e2d2 | 
"D7"c2D2 DFAc | "G"B2GB e2d2 | "D7"cDFA cAcF |1 "G"G2BA G2B2 :|2 "G"G2BA G2AG |: [K:Cmaj] "C"E2GG G3c | "G7"BAB2 BAB2 | 
fdBG FDB,G, | "C"ecGE cGEC | E2GG G3c | "G7"BAB2 BAB2 | fdBG gdfB |1 "C"c2ed c2AG :|2 "C"c2ed c2 z2 |] 

